svg/300/sharp/ent.svg

<svg xmlns="http://www.w3.org/2000/svg" width="48" height="48" viewBox="0 -960 960 960"><path d="M383.231-100.001h45.384l24.461-237.307h129.616v-45.384h-124.77l13.693-130.002H664.23v-45.384H430.462l-47.231 458.077Zm-123.23 0v-161.23q-57-52-88.5-119.193-31.5-67.192-31.5-139.854 0-141.55 99.167-240.635Q338.334-859.999 480-859.999q116.538 0 208.422 69.654t119.346 180.73l57.461 229.614h-125.23v200h-160v80h-45.384v-125.384h160v-200h112.461L764-598.846q-23.616-95.846-103.462-155.808Q580.692-814.615 480-814.615q-122.769 0-208.692 85.043t-85.923 207.496q0 63.55 25.94 120.283 25.94 56.732 73.137 100.601l20.923 19.884v181.307h-45.384Zm236.23-357.307Z"/></svg>

<svg xmlns="http://www.w3.org/2000/svg" width="48" height="48" viewBox="0 -960 960 960"><path d="M383.23-100h45.38l24.47-237.31h129.61v-45.38H457.92l13.69-130h192.62v-45.39H430.46L383.23-100ZM260-100v-161.23q-57-52-88.5-119.19-31.5-67.2-31.5-139.86 0-141.55 99.17-240.63Q338.33-860 480-860q116.54 0 208.42 69.66 91.89 69.65 119.35 180.73L865.23-380H740v200H580v80h-45.39v-125.39h160v-200h112.47L764-598.85q-23.62-95.84-103.46-155.8-79.85-59.96-180.54-59.96-122.77 0-208.69 85.04t-85.92 207.49q0 63.55 25.93 120.29 25.94 56.73 73.14 100.6l20.93 19.88V-100H260Zm236.23-357.31Z"/></svg>
